X:1
T:Title
%%score 1 2 3
L:1/8
Q:1/4=180
M:4/4
K:C
V:1 treble nm="Grand Piano"
V:2 bass nm="Grand Piano, Melody"
V:3 bass nm="Grand Piano"
V:1
 A4 e2 e2 | e4 A2 A2 | c4 c2 e2 | B2 A2 B4 | d4 c2 d2 | e4 e2 f2 | e4 B2 B2 | A8 | e4 c2 A2 | %9
 B4 G2 G2 | d3 e d2 B2 | e4 e4 | d4 c2 A2 | B4 G2 B2 | d4 d2 f2 | e8 | A4 c2 c2 | d4 e2 e2 | %18
 c4 c2 A2 | G2 A2 B4 | A4 c2 d2 | e4 e2 f2 | e4 B2 B2 | A8 | e4 c2 A2 | B4 G2 G2 | d3 e d2 B2 | %27
 e4 e4 | d4 c2 A2 | B4 G2 B2 | d4 d2 f2 | e8 | A4 c2 c2 | d4 e2 e2 | c4 c2 A2 | G2 A2 B4 | %36
 A4 c2 d2 | e4 e2 f2 | e4 B2 B2 | A8 |] %40
V:2
 A,4 A,2 B,2 | A,4 E,2 E,2 | G,4 G,2 A,2 | G,2 F,2 E,4 | A,4 C2 A,2 | B,4 E,2 D,2 | E,4 G,2 G,2 | %7
 A,8 | A,4[K:treble] C2 D2 | E4 D2 C2 | D3 C D2 E2 | C4 A,4 | A,4 C2 D2 | E4 D2 C2 | D3 C D2 C2 | %15
 B,8 | E4 E2 C2 | A,4 E,2 E,2 | G,4 G,2 A,2 | G,2 F,2 E,4 | A,4 C2 A,2 | B,4 E,2 D,2 | %22
 E,4 G,2 G,2 | A,8 | A,4[K:treble] C2 D2 | E4 D2 C2 | D3 C D2 E2 | C4 A,4 | A,4 C2 D2 | E4 D2 C2 | %30
 D3 C D2 C2 | B,8 | E4 E2 C2 | A,4 E,2 E,2 | G,4 G,2 A,2 | G,2 F,2 E,4 | A,4 C2 A,2 | B,4 E,2 D,2 | %38
 E,4 G,2 G,2 | A,8 |] %40
V:3
 A,4 A,2 E,2 | A,,4 A,,2 A,,2 | C,4 C,2 A,,2 | E,4 E,4 | D,4 C,2 A,,2 | E,4 E,2 F,2 | E,4 E,2 E,2 | %7
 A,,8 | A,4 G,2 G,2 | E,4 G,2 G,2 | G,4 G,2 E,2 | A,4 A,4 | A,4 G,2 G,2 | E,4 G,2 E,2 | %14
 D,4 D,2 F,2 | E,8 | A,4 A,2 A,2 | A,4 A,,2 A,,2 | C,4 C,2 A,,2 | E,4 E,4 | D,4 C,2 A,,2 | %21
 E,4 E,2 F,2 | E,4 E,2 E,2 | A,,8 | A,4 G,2 G,2 | E,4 G,2 G,2 | G,4 G,2 E,2 | A,4 A,4 | %28
 A,4 G,2 G,2 | E,4 G,2 E,2 | D,4 D,2 F,2 | E,8 | A,4 A,2 A,2 | A,4 A,,2 A,,2 | C,4 C,2 A,,2 | %35
 E,4 E,4 | D,4 C,2 A,,2 | E,4 E,2 F,2 | E,4 E,2 E,2 | A,,8 |] %40

